svgs/sharp-solid/tombstone.svg

<svg xmlns="http://www.w3.org/2000/svg" viewBox="0 0 448 512"><!--! Font Awesome Pro 6.6.0 by @fontawesome - https://fontawesome.com License - https://fontawesome.com/license (Commercial License) Copyright 2024 Fonticons, Inc. --><path d="M32 192C32 86 118 0 224 0S416 86 416 192l0 224L32 416l0-224zM0 448l32 0 384 0 32 0 0 64-32 0L32 512 0 512l0-64zM248 120l0-24-48 0 0 24 0 40-48 0-24 0 0 48 24 0 48 0 0 120 0 24 48 0 0-24 0-120 48 0 24 0 0-48-24 0-48 0 0-40z"/></svg>

<svg xmlns="http://www.w3.org/2000/svg" viewBox="0 0 448 512"><!--! Font Awesome Pro 6.4.0 by @fontawesome - https://fontawesome.com License - https://fontawesome.com/license (Commercial License) Copyright 2023 Fonticons, Inc. --><path d="M32 192C32 86 118 0 224 0S416 86 416 192V416H32V192zM0 448H32 416h32v64H416 32 0V448zM248 120V96H200v24 40H152 128v48h24 48V328v24h48V328 208h48 24V160H296 248V120z"/></svg>
